X:1
T:Little Marlborough, SM
T:Little Marlborough, SM
T:Universal Psalmodist, Aaron Williams, 1763
T:Public Domain Courtesy of the Cyber Hymnal™
C:Universal Psalmodist, Aaron Williams, 1763
Z:Public Domain
Z:Courtesy of the Cyber Hymnal™
%%score ( 1 2 ) ( 3 4 )
L:1/8
M:3/4
K:C
V:1 treble 
V:2 treble 
V:3 bass 
V:4 bass 
V:1
 E2 | [EA]4 [Ec]2 | ([GB]2 [FA]2) [E^G]2 | !fermata![EA]4 [EB]2 | [Ec]4 [Ee]2 | [Dd]4 [Fc]2 | %6
 !fermata![EB]4 [GB]2 | [Ge]4 [Ec]2 | [EA]4 [Ec]2 | [GB]4 [FA]2 | !fermata!E4 E2 | [EA]4 [Ec]2 | %12
 ([Dd]2 [Fc]2) [EB]2 | !fermata![EA]4 |] %14
V:2
 E2 | x6 | x6 | x6 | x6 | x6 | x6 | x6 | x6 | x6 | E4 E2 | x6 | x6 | x4 |] %14
V:3
 [E,A,]2 | [A,,C]4 [A,E]2 | (D3 C) [E,C]2 | !fermata![A,,A,]4 [E,^G,]2 | [A,,A,]4 [E,C]2 | %5
 [^G,B,]4 A,2 | !fermata![E,G,]4 [E,B,]2 | [C,C]4 [E,G,]2 | [A,C]4 [A,E]2 | [D,D]4 [A,,C]2 | %10
 !fermata![E,B,]4 [E,B,]2 | [C,C]4 [A,,E]2 | [D,A,]4 [E,^G,]2 | !fermata![A,,A,]4 |] %14
V:4
 x2 | x6 | D,4 x2 | x6 | x6 | x4 A,2 | x6 | x6 | x6 | x6 | x6 | x6 | x6 | x4 |] %14

